Sweet-Rainbow/icons/kphotoalbum.svg

<?xml version="1.0" encoding="UTF-8" standalone="no"?>
<!-- Generator: Gravit.io -->

<svg
   xmlns:dc="http://purl.org/dc/elements/1.1/"
   xmlns:cc="http://creativecommons.org/ns#"
   xmlns:rdf="http://www.w3.org/1999/02/22-rdf-syntax-ns#"
   xmlns:svg="http://www.w3.org/2000/svg"
   xmlns="http://www.w3.org/2000/svg"
   xmlns:sodipodi="http://sodipodi.sourceforge.net/DTD/sodipodi-0.dtd"
   xmlns:inkscape="http://www.inkscape.org/namespaces/inkscape"
   style="isolation:isolate"
   viewBox="0 0 36 36"
   width="48"
   height="48"
   version="1.1"
   id="svg9"
   sodipodi:docname="kphotoalbum.svg"
   inkscape:version="0.92.4 (5da689c313, 2019-01-14)">
  <metadata
     id="metadata15">
    <rdf:RDF>
      <cc:Work
         rdf:about="">
        <dc:format>image/svg+xml</dc:format>
        <dc:type
           rdf:resource="http://purl.org/dc/dcmitype/StillImage" />
        <dc:title></dc:title>
      </cc:Work>
    </rdf:RDF>
  </metadata>
  <defs
     id="defs13" />
  <sodipodi:namedview
     pagecolor="#ffffff"
     bordercolor="#666666"
     borderopacity="1"
     objecttolerance="10"
     gridtolerance="10"
     guidetolerance="10"
     inkscape:pageopacity="0"
     inkscape:pageshadow="2"
     inkscape:window-width="640"
     inkscape:window-height="480"
     id="namedview11"
     showgrid="false"
     inkscape:zoom="29.365243"
     inkscape:cx="25.325443"
     inkscape:cy="32"
     inkscape:current-layer="svg9"
     units="px" />
  <linearGradient
     id="_lgradient_49"
     x1="0.67180997"
     y1="0.020570019"
     x2="0.42214948"
     y2="0.96016449"
     gradientTransform="matrix(44.964,0,0,47.134,1.518,0.48)"
     gradientUnits="userSpaceOnUse">
    <stop
       offset="0%"
       stop-opacity="1"
       style="stop-color:rgb(26,108,255)"
       id="stop2" />
    <stop
       offset="100%"
       stop-opacity="1"
       style="stop-color:rgb(197,34,255)"
       id="stop4" />
  </linearGradient>
  <g
     id="g826"
     transform="matrix(0.76377642,0,0,0.76377642,-0.33063408,-0.36645052)">
    <path
       id="path7"
       d="m 35.671,41.432 h 4.092 c 1.712,0 3.101,-1.389 3.101,-3.101 V 23.209 c 0,-1.712 -1.389,-3.101 -3.101,-3.101 H 8.237 c -1.712,0 -3.101,1.389 -3.101,3.101 v 3.258 0 c 0,0.04 -0.001,0.08 -0.008,0.118 v 0 0 c 0.007,0.038 0.008,0.078 0.008,0.118 v 0 11.628 c 0,1.712 1.389,3.101 3.101,3.101 h 5.125 C 12.064,39.356 11.361,36.94 11.361,34.456 v 0 c 0,-3.493 1.382,-6.842 3.849,-9.31 2.468,-2.458 5.817,-3.849 9.31,-3.849 3.484,0 6.833,1.391 9.3,3.849 2.467,2.468 3.858,5.817 3.858,9.31 0,2.484 -0.707,4.9 -2.007,6.976 z m -3.356,3.618 h 0.988 8.011 c 2.852,0 5.168,-2.316 5.168,-5.168 V 25.599 21.658 c 0,-2.852 -2.316,-5.168 -5.168,-5.168 H 32.687 L 30.253,2.177 C 30.064,1.068 29.011,0.32 27.902,0.509 L 17.125,2.342 v 0 c -0.74,0.125 -1.238,0.828 -1.112,1.567 v 0 c 0.126,0.739 0.828,1.238 1.567,1.112 v 0 L 26.348,3.53 c 0.739,-0.126 1.442,0.372 1.567,1.112 l 0.409,2.4 C 28.211,7.105 28.108,7.19 28.022,7.297 v 0 L 22,12.813 c -0.277,0.254 -0.749,0.283 -1.055,0.066 l -4.1,-2.908 C 15.927,9.32 14.594,9.491 13.87,10.351 L 8.702,16.49 H 8.551 L 7.15,8.173 C 7.025,7.433 7.524,6.731 8.263,6.605 l 3.718,-0.632 v 0 C 12.72,5.847 13.218,5.145 13.093,4.406 v 0 C 12.967,3.666 12.264,3.168 11.525,3.294 v 0 L 5.798,4.268 C 4.689,4.456 3.945,5.509 4.138,6.618 l 1.728,9.937 v 0 0 c -2.463,0.393 -4.348,2.53 -4.348,5.103 v 4.809 0 c 0,0.04 10e-4,0.08 0.008,0.118 -0.007,0.038 -0.008,0.078 -0.008,0.118 v 0 13.179 c 0,2.852 2.316,5.168 5.168,5.168 h 8.011 2.019 c 2.246,1.654 4.978,2.564 7.804,2.564 2.819,0 5.549,-0.91 7.795,-2.564 z M 29.493,16.49 c 0.224,-0.264 0.331,-0.624 0.265,-1.011 l -1.029,-6.05 -5.376,5.2 c -0.809,0.782 -2.21,0.888 -3.128,0.237 l -4.006,-2.841 c -0.305,-0.217 -0.754,-0.164 -1,0.119 l -3.791,4.346 v 0 z M 21.856,7.509 c -0.157,-0.924 0.465,-1.802 1.39,-1.959 0.924,-0.157 1.802,0.466 1.959,1.39 0.157,0.924 -0.466,1.802 -1.39,1.959 -0.924,0.157 -1.802,-0.466 -1.959,-1.39 z m 4.47,33.148 v 0 c 0.684,-0.2 1.402,0.194 1.602,0.879 v 0 c 0.2,0.684 -0.199,1.402 -0.889,1.602 v 0 c -0.817,0.238 -1.664,0.362 -2.522,0.362 -2.398,0 -4.703,-0.951 -6.398,-2.647 -1.696,-1.695 -2.647,-4 -2.647,-6.398 0,-2.398 0.951,-4.703 2.647,-6.398 1.695,-1.695 4,-2.646 6.398,-2.646 2.398,0 4.703,0.951 6.398,2.646 1.695,1.695 2.646,4 2.646,6.398 0,1.695 -0.475,3.359 -1.374,4.796 v 0 c -0.377,0.605 -1.174,0.788 -1.778,0.409 v 0 c -0.605,-0.38 -0.79,-1.179 -0.414,-1.783 v 0 c 0.641,-1.024 0.982,-2.212 0.982,-3.422 0,-1.716 -0.682,-3.359 -1.891,-4.569 -1.21,-1.209 -2.853,-1.891 -4.569,-1.891 -1.716,0 -3.36,0.682 -4.569,1.891 -1.209,1.21 -1.891,2.853 -1.891,4.569 0,1.716 0.682,3.359 1.891,4.569 1.209,1.209 2.853,1.891 4.569,1.891 0.61,0 1.22,-0.082 1.809,-0.258 z M 9.529,21.894 v 0 c 0.828,0 1.5,0.672 1.5,1.5 v 0 c 0,0.828 -0.672,1.5 -1.5,1.5 v 0 c -0.828,0 -1.5,-0.672 -1.5,-1.5 v 0 c 0,-0.828 0.672,-1.5 1.5,-1.5 z m 4.376,12.562 c 0,-2.815 1.119,-5.52 3.103,-7.504 1.992,-1.992 4.697,-3.111 7.512,-3.111 2.814,0 5.51,1.119 7.503,3.111 1.992,1.984 3.111,4.689 3.111,7.504 0,2.814 -1.119,5.519 -3.111,7.503 -1.993,1.992 -4.689,3.111 -7.503,3.111 -2.815,0 -5.52,-1.119 -7.512,-3.111 -1.984,-1.984 -3.103,-4.689 -3.103,-7.503 z"
       style="fill:url(#_lgradient_49);fill-rule:evenodd"
       inkscape:connector-curvature="0" />
  </g>
</svg>

<?xml version="1.0" encoding="UTF-8" standalone="no"?><!-- Generator: Gravit.io --><svg xmlns="http://www.w3.org/2000/svg" xmlns:xlink="http://www.w3.org/1999/xlink" style="isolation:isolate" viewBox="0 0 48 48" width="48pt" height="48pt"><linearGradient id="_lgradient_49" x1="0.6718099850460906" y1="0.020570018975650584" x2="0.4221494918345081" y2="0.9601645064179158" gradientTransform="matrix(44.964,0,0,47.134,1.518,0.48)" gradientUnits="userSpaceOnUse"><stop offset="0%" stop-opacity="1" style="stop-color:rgb(26,108,255)"/><stop offset="100%" stop-opacity="1" style="stop-color:rgb(197,34,255)"/></linearGradient><path d=" M 35.671 41.432 L 39.763 41.432 C 41.475 41.432 42.864 40.043 42.864 38.331 L 42.864 23.209 C 42.864 21.497 41.475 20.108 39.763 20.108 L 8.237 20.108 C 6.525 20.108 5.136 21.497 5.136 23.209 L 5.136 26.467 L 5.136 26.467 C 5.136 26.507 5.135 26.547 5.128 26.585 L 5.128 26.585 L 5.128 26.585 C 5.135 26.623 5.136 26.663 5.136 26.703 L 5.136 26.703 L 5.136 38.331 C 5.136 40.043 6.525 41.432 8.237 41.432 L 13.362 41.432 C 12.064 39.356 11.361 36.94 11.361 34.456 L 11.361 34.456 C 11.361 30.963 12.743 27.614 15.21 25.146 C 17.678 22.688 21.027 21.297 24.52 21.297 C 28.004 21.297 31.353 22.688 33.82 25.146 C 36.287 27.614 37.678 30.963 37.678 34.456 C 37.678 36.94 36.971 39.356 35.671 41.432 Z  M 32.315 45.05 L 33.303 45.05 L 41.314 45.05 C 44.166 45.05 46.482 42.734 46.482 39.882 L 46.482 25.599 L 46.482 21.658 C 46.482 18.806 44.166 16.49 41.314 16.49 L 32.687 16.49 L 30.253 2.177 C 30.064 1.068 29.011 0.32 27.902 0.509 L 17.125 2.342 L 17.125 2.342 C 16.385 2.467 15.887 3.17 16.013 3.909 L 16.013 3.909 C 16.139 4.648 16.841 5.147 17.58 5.021 L 17.58 5.021 L 26.348 3.53 C 27.087 3.404 27.79 3.902 27.915 4.642 L 28.324 7.042 C 28.211 7.105 28.108 7.19 28.022 7.297 L 28.022 7.297 L 22 12.813 C 21.723 13.067 21.251 13.096 20.945 12.879 L 16.845 9.971 C 15.927 9.32 14.594 9.491 13.87 10.351 L 8.702 16.49 L 8.551 16.49 L 7.15 8.173 C 7.025 7.433 7.524 6.731 8.263 6.605 L 11.981 5.973 L 11.981 5.973 C 12.72 5.847 13.218 5.145 13.093 4.406 L 13.093 4.406 C 12.967 3.666 12.264 3.168 11.525 3.294 L 11.525 3.294 L 5.798 4.268 C 4.689 4.456 3.945 5.509 4.138 6.618 L 5.866 16.555 L 5.866 16.555 L 5.866 16.555 C 3.403 16.948 1.518 19.085 1.518 21.658 L 1.518 26.467 L 1.518 26.467 C 1.518 26.507 1.519 26.547 1.526 26.585 C 1.519 26.623 1.518 26.663 1.518 26.703 L 1.518 26.703 L 1.518 39.882 C 1.518 42.734 3.834 45.05 6.686 45.05 L 14.697 45.05 L 16.716 45.05 C 18.962 46.704 21.694 47.614 24.52 47.614 C 27.339 47.614 30.069 46.704 32.315 45.05 Z  M 29.493 16.49 C 29.717 16.226 29.824 15.866 29.758 15.479 L 28.729 9.429 L 23.353 14.629 C 22.544 15.411 21.143 15.517 20.225 14.866 L 16.219 12.025 C 15.914 11.808 15.465 11.861 15.219 12.144 L 11.428 16.49 L 11.428 16.49 L 29.493 16.49 L 29.493 16.49 L 29.493 16.49 L 29.493 16.49 Z  M 21.856 7.509 C 21.699 6.585 22.321 5.707 23.246 5.55 C 24.17 5.393 25.048 6.016 25.205 6.94 C 25.362 7.864 24.739 8.742 23.815 8.899 C 22.891 9.056 22.013 8.433 21.856 7.509 L 21.856 7.509 L 21.856 7.509 L 21.856 7.509 L 21.856 7.509 L 21.856 7.509 Z  M 26.326 40.657 L 26.326 40.657 C 27.01 40.457 27.728 40.851 27.928 41.536 L 27.928 41.536 C 28.128 42.22 27.729 42.938 27.039 43.138 L 27.039 43.138 C 26.222 43.376 25.375 43.5 24.517 43.5 C 22.119 43.5 19.814 42.549 18.119 40.853 C 16.423 39.158 15.472 36.853 15.472 34.455 C 15.472 32.057 16.423 29.752 18.119 28.057 C 19.814 26.362 22.119 25.411 24.517 25.411 C 26.915 25.411 29.22 26.362 30.915 28.057 C 32.61 29.752 33.561 32.057 33.561 34.455 C 33.561 36.15 33.086 37.814 32.187 39.251 L 32.187 39.251 C 31.81 39.856 31.013 40.039 30.409 39.66 L 30.409 39.66 C 29.804 39.28 29.619 38.481 29.995 37.877 L 29.995 37.877 C 30.636 36.853 30.977 35.665 30.977 34.455 C 30.977 32.739 30.295 31.096 29.086 29.886 C 27.876 28.677 26.233 27.995 24.517 27.995 C 22.801 27.995 21.157 28.677 19.948 29.886 C 18.739 31.096 18.057 32.739 18.057 34.455 C 18.057 36.171 18.739 37.814 19.948 39.024 C 21.157 40.233 22.801 40.915 24.517 40.915 C 25.127 40.915 25.737 40.833 26.326 40.657 L 26.326 40.657 L 26.326 40.657 L 26.326 40.657 L 26.326 40.657 Z  M 9.529 21.894 L 9.529 21.894 C 10.357 21.894 11.029 22.566 11.029 23.394 L 11.029 23.394 C 11.029 24.222 10.357 24.894 9.529 24.894 L 9.529 24.894 C 8.701 24.894 8.029 24.222 8.029 23.394 L 8.029 23.394 C 8.029 22.566 8.701 21.894 9.529 21.894 L 9.529 21.894 Z  M 13.905 34.456 C 13.905 31.641 15.024 28.936 17.008 26.952 C 19 24.96 21.705 23.841 24.52 23.841 C 27.334 23.841 30.03 24.96 32.023 26.952 C 34.015 28.936 35.134 31.641 35.134 34.456 C 35.134 37.27 34.015 39.975 32.023 41.959 C 30.03 43.951 27.334 45.07 24.52 45.07 C 21.705 45.07 19 43.951 17.008 41.959 C 15.024 39.975 13.905 37.27 13.905 34.456 L 13.905 34.456 Z " fill-rule="evenodd" fill="url(#_lgradient_49)"/></svg>
